storage/app/icons/phosphoricons/fill/engine-fill.svg

<svg xmlns="http://www.w3.org/2000/svg" fill="currentColor" viewBox="0 0 256 256"><path d="M256 120v48a16 16 0 0 1-16 16h-12.69L192 219.31a15.86 15.86 0 0 1-11.31 4.69h-77.38A15.86 15.86 0 0 1 92 219.31L52.69 180A15.86 15.86 0 0 1 48 168.69V148H24v24a8 8 0 0 1-16 0v-64a8 8 0 0 1 16 0v24h24V80a16 16 0 0 1 16-16h60V40h-24a8 8 0 0 1 0-16h64a8 8 0 0 1 0 16h-24v24h40.69A15.86 15.86 0 0 1 192 68.69L227.31 104H240a16 16 0 0 1 16 16"/></svg>

<svg xmlns="http://www.w3.org/2000/svg" viewBox="0 0 256 256" fill="currentColor"><path d="M256,120v48a16,16,0,0,1-16,16H227.31L192,219.31A15.86,15.86,0,0,1,180.69,224H103.31A15.86,15.86,0,0,1,92,219.31L52.69,180A15.86,15.86,0,0,1,48,168.69V148H24v24a8,8,0,0,1-16,0V108a8,8,0,0,1,16,0v24H48V80A16,16,0,0,1,64,64h60V40H100a8,8,0,0,1,0-16h64a8,8,0,0,1,0,16H140V64h40.69A15.86,15.86,0,0,1,192,68.69L227.31,104H240A16,16,0,0,1,256,120Z"/></svg>
